public/static/img/crypto/LUNA.svg

<svg width="48" height="48" viewBox="0 0 48 48" fill="none" xmlns="http://www.w3.org/2000/svg">
<g clip-path="url(#clip0_1150_15637)">
<path d="M0 24C0 30.3652 2.52856 36.4697 7.02944 40.9706C11.5303 45.4714 17.6348 48 24 48C30.3652 48 36.4697 45.4714 40.9706 40.9706C45.4714 36.4697 48 30.3652 48 24C48 17.6348 45.4714 11.5303 40.9706 7.02944C36.4697 2.52856 30.3652 0 24 0C17.6348 0 11.5303 2.52856 7.02944 7.02944C2.52856 11.5303 0 17.6348 0 24Z" fill="#172852"/>
<path d="M19.332 10.7259C22.1424 9.67474 25.3056 9.67234 28.1688 10.5363C31.896 11.6931 35.0424 14.5059 36.6864 18.0363C37.14 19.0419 37.5744 20.0907 37.6176 21.2091C35.5224 19.9947 33.2256 19.2075 30.924 18.4899C27.2424 17.1627 23.388 16.2411 19.9032 14.4171C19.092 13.9323 18.0576 13.4355 17.8368 12.4251C17.748 11.5515 18.672 11.0643 19.332 10.7259ZM10.848 19.2219C11.6616 17.0139 12.996 14.9643 14.808 13.4451C15.2688 17.2347 16.8816 20.8971 19.5456 23.6523C22.74 26.9715 27.2904 29.0091 31.92 28.9323C33.7584 28.9899 35.556 28.5651 37.3488 28.2219C35.5848 34.5963 28.5984 38.8275 22.1256 37.8099C18.2184 37.3107 14.6112 34.9971 12.4344 31.7307C9.97923 28.1211 9.36003 23.3283 10.848 19.2219Z" fill="#FFD83D"/>
<path d="M30.924 18.4893C33.2256 19.2069 35.5224 19.9941 37.6176 21.2085L37.7592 21.2829C37.9536 22.7445 38.0952 24.2349 37.836 25.6989C36.7824 25.2525 35.928 24.4677 35.0352 23.7741C33.3168 22.3437 31.5624 20.7069 30.924 18.4893Z" fill="#FF6F03"/>
</g>
<defs>
<clipPath id="clip0_1150_15637">
<rect width="48" height="48" fill="white"/>
</clipPath>
</defs>
</svg>

<svg width="48" height="48" fill="none" xmlns="http://www.w3.org/2000/svg"><g clip-path="url(#a)"><path d="M0 24a24 24 0 1 0 48 0 24 24 0 0 0-48 0Z" fill="#172852"/><path d="M19.332 10.726c2.81-1.051 5.974-1.054 8.837-.19 3.727 1.157 6.873 3.97 8.517 7.5.454 1.006.888 2.055.932 3.173-2.096-1.214-4.392-2.002-6.694-2.72-3.682-1.326-7.536-2.248-11.02-4.072-.812-.485-1.846-.982-2.067-1.992-.089-.873.835-1.36 1.495-1.7Zm-8.484 8.496c.814-2.208 2.148-4.258 3.96-5.777.46 3.79 2.074 7.452 4.738 10.207 3.194 3.32 7.744 5.357 12.374 5.28 1.838.058 3.636-.367 5.429-.71-1.764 6.374-8.75 10.605-15.223 9.588-3.908-.5-7.515-2.813-9.692-6.08-2.455-3.609-3.074-8.402-1.586-12.508Z" fill="#FFD83D"/><path d="M30.924 18.49c2.302.717 4.598 1.504 6.694 2.719l.141.074c.195 1.461.336 2.952.077 4.416-1.054-.447-1.908-1.231-2.8-1.925-1.72-1.43-3.474-3.067-4.112-5.285Z" fill="#FF6F03"/></g><defs><clipPath id="a"><path fill="#fff" d="M0 0h48v48H0z"/></clipPath></defs></svg>
